X: 20354
T: John Campbell's
R: strathspey
M: 4/4
K: Gmajor
c/|:B<G G>B A>G E>c|B<G G>B g>d e<g|d<G d>B A<G E>A|B<e A<B D<G G>c:|
|:B<d d>B d>e g>b|a>g f>d g>f e<d|B<d d>B d>b g>e|d<B A>B D<G G>c:|

